apps/scalable/xnoise.svg

<svg xmlns="http://www.w3.org/2000/svg" style="isolation:isolate" width="256" height="256"><defs><filter id="a" width="270.648" height="254.338" x="-7.32" y="2.95" filterUnits="userSpaceOnUse"><feGaussianBlur xmlns="http://www.w3.org/2000/svg" in="SourceGraphic" stdDeviation="4.294"/><feOffset xmlns="http://www.w3.org/2000/svg" dy="4" result="pf_100_offsetBlur"/><feFlood xmlns="http://www.w3.org/2000/svg" flood-opacity=".4"/><feComposite xmlns="http://www.w3.org/2000/svg" in2="pf_100_offsetBlur" operator="in" result="pf_100_dropShadow"/><feBlend xmlns="http://www.w3.org/2000/svg" in="SourceGraphic" in2="pf_100_dropShadow"/></filter></defs><g filter="url(#a)"><linearGradient id="b" x1=".5" x2=".5" y1=".999" y2="-.001" gradientTransform="matrix(244.648 0 0 228.338 5.676 11.947)" gradientUnits="userSpaceOnUse"><stop offset="1.739%" stop-color="#ad4f8d"/><stop offset="100%" stop-color="#6b8ccb"/></linearGradient><path fill="url(#b)" d="M165.685 11.947c74.055 0 84.639 10.557 84.639 84.544v59.251c0 73.986-10.584 84.543-84.639 84.543h-75.37c-74.055 0-84.639-10.557-84.639-84.543V96.491c0-73.987 10.584-84.544 84.639-84.544h75.37z"/></g><g opacity=".4"><linearGradient id="c" x1=".517" x2=".517" y2="1"><stop offset="0%" stop-color="#fff"/><stop offset="12.5%" stop-opacity=".098" stop-color="#fff"/><stop offset="92.5%" stop-opacity=".098"/><stop offset="100%" stop-opacity=".498"/></linearGradient><path fill="none" stroke="url(#c)" stroke-linecap="round" stroke-linejoin="round" stroke-width="4.077" d="M165.685 11.947c74.055 0 84.639 10.557 84.639 84.544v59.251c0 73.986-10.584 84.543-84.639 84.543h-75.37c-74.055 0-84.639-10.557-84.639-84.543V96.491c0-73.987 10.584-84.544 84.639-84.544h75.37z" vector-effect="non-scaling-stroke"/></g><g filter="url(#v4y3DTtvs7mK5xx5yqHoAI4N78tpp3Hy)" fill="#FEFEFE"><path d="M143.03 127.72c1.23.61 2.41 1.35 3.5 2.19 1.48 1.14 2.85 2.41 4.12 3.78a69.42 69.42 0 0 1 4.5 5.34c1.82 2.39 3.58 4.82 5.28 7.3 1.56 2.27 3.15 4.51 4.78 6.72 1.32 1.81 2.7 3.57 4.12 5.3 1.14 1.39 2.35 2.72 3.63 3.99 1.02 1.03 2.12 1.98 3.28 2.85.98.73 2.03 1.36 3.13 1.89 1.04.5 2.13.9 3.25 1.18 1.21.31 2.45.52 3.7.64 1.47.13 2.95.2 4.42.19 1.4-.01 2.8.04 4.2.14 1.09.08 2.19.22 3.26.45.46.09.9.21 1.34.36.42.15.83.33 1.21.56.46.26.86.62 1.19 1.04.44.58.67 1.3.66 2.03-.03.83-.35 1.63-.9 2.26-.41.48-.89.9-1.42 1.24-.44.27-.92.48-1.43.59-.44.11-.89.2-1.35.25-1.08.12-2.17.17-3.26.16-1.5-.01-2.99-.07-4.49-.18-1.6-.12-3.19-.28-4.78-.5a55.62 55.62 0 0 1-4.44-.76c-1.24-.25-2.46-.6-3.63-1.07-1.75-.74-3.41-1.7-4.94-2.83a39.82 39.82 0 0 1-4.95-4.31 71.698 71.698 0 0 1-5.15-5.86c-1.93-2.43-3.76-4.93-5.5-7.5-1.47-2.15-2.98-4.29-4.52-6.39-1.28-1.75-2.6-3.46-3.98-5.13-1.13-1.38-2.31-2.7-3.56-3.97-1.02-1.04-2.1-2.01-3.25-2.91-.96-.76-1.98-1.43-3.05-2.01-.97-.52-1.99-.94-3.04-1.27-1.07-.33-2.17-.57-3.28-.71-1.24-.15-2.49-.22-3.74-.22s-2.5.07-3.75.22c-1.11.14-2.2.38-3.27.71-1.05.33-2.07.75-3.04 1.27-1.07.58-2.1 1.25-3.06 2.01-1.14.9-2.23 1.87-3.24 2.91a55.713 55.713 0 0 0-3.56 3.97 103.39 103.39 0 0 0-3.98 5.13c-1.54 2.1-3.05 4.23-4.52 6.39-1.75 2.59-3.6 5.11-5.53 7.57-1.59 2.02-3.3 3.95-5.11 5.78a37.704 37.704 0 0 1-4.96 4.23 26.18 26.18 0 0 1-5.06 2.83c-1.25.5-2.53.89-3.85 1.17-1.52.34-3.05.63-4.59.84-1.62.24-3.24.42-4.87.55-1.49.12-2.99.19-4.49.19-1.18.02-2.36-.05-3.52-.21-.5-.07-.98-.19-1.45-.35-.73-.24-1.36-.7-1.8-1.33-.25-.38-.46-.79-.62-1.21-.18-.47-.27-.98-.27-1.49.02-1.19.6-2.3 1.56-3 .39-.28.81-.51 1.25-.68.44-.17.89-.31 1.35-.41 1.07-.23 2.16-.37 3.25-.43 1.44-.09 2.89-.13 4.33-.12 1.46.01 2.92-.06 4.38-.19 1.24-.12 2.47-.34 3.68-.65 1.12-.29 2.21-.69 3.25-1.2 1.11-.54 2.17-1.19 3.16-1.93a31.68 31.68 0 0 0 3.33-2.91c1.3-1.3 2.53-2.66 3.7-4.08 1.46-1.76 2.86-3.56 4.22-5.4 1.67-2.26 3.31-4.54 4.91-6.85 1.64-2.37 3.37-4.67 5.17-6.91a83.46 83.46 0 0 1 4.97-5.66c1.46-1.53 3.03-2.96 4.69-4.28.53-.43 1.08-.83 1.65-1.21-.58-.39-1.13-.8-1.67-1.23a45.85 45.85 0 0 1-4.71-4.32 85.23 85.23 0 0 1-5.01-5.71 127.76 127.76 0 0 1-5.23-7.02c-1.6-2.3-3.23-4.59-4.88-6.86-1.32-1.81-2.68-3.58-4.08-5.32-1.1-1.36-2.27-2.68-3.49-3.94-.96-.99-2-1.91-3.1-2.74-.93-.7-1.92-1.31-2.96-1.82-1.02-.49-2.09-.88-3.18-1.17-1.25-.32-2.52-.57-3.8-.72-1.57-.2-3.14-.34-4.71-.42-1.55-.09-3.09-.2-4.63-.35-1.06-.1-2.12-.26-3.16-.49-.43-.09-.84-.22-1.25-.37-.42-.16-.82-.38-1.18-.65a3.54 3.54 0 0 1-1.45-2.77c-.02-.99.36-1.94 1.07-2.63.63-.56 1.41-.94 2.24-1.1.77-.16 1.56-.26 2.35-.3 1.11-.05 2.23-.08 3.34-.07.76 0 1.52 0 2.28.02 1.77.01 3.52.1 5.28.26 1.59.15 3.17.4 4.73.76 1.49.34 2.94.81 4.34 1.41 1.42.61 2.77 1.34 4.05 2.2 1.36.91 2.64 1.93 3.84 3.05 1.35 1.24 2.63 2.57 3.83 3.95 1.4 1.62 2.74 3.28 4.02 4.98a191.6 191.6 0 0 1 4.46 6.13c1.52 2.18 3.08 4.34 4.67 6.48 1.3 1.76 2.65 3.48 4.04 5.16 1.13 1.37 2.32 2.69 3.56 3.96.99 1.02 2.06 1.98 3.18 2.87.93.73 1.92 1.38 2.95 1.95.93.5 1.91.9 2.92 1.22 1.02.31 2.08.53 3.14.67 1.21.14 2.43.22 3.65.21h.19c1.22.01 2.43-.06 3.64-.2 1.07-.12 2.13-.33 3.16-.62 2.05-.6 3.98-1.56 5.7-2.83 1.03-.76 2-1.58 2.91-2.47 1.09-1.06 2.12-2.17 3.1-3.33 1.17-1.4 2.3-2.84 3.38-4.31 1.29-1.76 2.55-3.54 3.76-5.35 2.07-3.09 4.25-6.1 6.53-9.04 1.88-2.43 3.88-4.76 6.01-6.98 1.73-1.82 3.61-3.49 5.62-5 1.67-1.27 3.5-2.3 5.45-3.08 1.11-.41 2.24-.74 3.39-1 1.25-.28 2.51-.5 3.78-.67 2.6-.36 5.22-.54 7.84-.54 1.03-.01 2.07.03 3.1.11.89.06 1.77.17 2.64.34.8.14 1.57.4 2.29.76.45.24.86.57 1.19.96.47.56.74 1.28.74 2.01a3.56 3.56 0 0 1-1.52 2.88c-.38.26-.78.47-1.21.62-.42.15-.86.27-1.29.36-1.11.23-2.22.39-3.35.48-1.65.15-3.31.26-4.96.35-1.76.08-3.52.21-5.28.39-1.1.1-2.2.28-3.28.54-.77.2-1.52.48-2.23.84-.85.45-1.67.96-2.45 1.52-.7.5-1.36 1.06-1.98 1.66-.92.87-1.8 1.76-2.65 2.69a71.853 71.853 0 0 0-5.38 6.56c-3.62 5.03-7.25 10.05-10.89 15.06a51.295 51.295 0 0 1-5.15 5.97c-.88.88-1.79 1.74-2.74 2.55-.81.71-1.67 1.37-2.57 1.96-.74.45-1.46.93-2.16 1.43z"/><path d="M123.37 127.84c-1.33.18-2.64.47-3.93.86-.04.01-.07.03-.11.04.11-.3.16-.61.17-.92-.01-.29-.06-.58-.15-.85l.09.03c1.28.39 2.6.67 3.93.84zM136.42 127.84v.01a3.219 3.219 0 0 0 .13.89c-.04-.01-.08-.03-.12-.04-1.3-.4-2.64-.69-3.99-.87 1.23-.16 2.44-.41 3.63-.75.19-.05.37-.1.55-.16-.06.16-.11.33-.15.5-.03.14-.04.28-.05.42z"/></g><defs><filter id="v4y3DTtvs7mK5xx5yqHoAI4N78tpp3Hy" width="209.2" height="160.645" x="23.4" y="51.68" filterUnits="userSpaceOnUse"><feGaussianBlur xmlns="http://www.w3.org/2000/svg" in="SourceGraphic" stdDeviation="4.294"/><feOffset xmlns="http://www.w3.org/2000/svg" dy="4" result="pf_100_offsetBlur"/><feFlood xmlns="http://www.w3.org/2000/svg" flood-opacity=".4"/><feComposite xmlns="http://www.w3.org/2000/svg" in2="pf_100_offsetBlur" operator="in" result="pf_100_dropShadow"/><feBlend xmlns="http://www.w3.org/2000/svg" in="SourceGraphic" in2="pf_100_dropShadow"/></filter></defs></svg>

<svg xmlns="http://www.w3.org/2000/svg" style="isolation:isolate" width="256" height="256" viewBox="0 0 256 256">
 <defs>
  <filter id="Yi0CXdnIzujkYdPUkWS2dmYmJdOvBnmL" width="270.648" height="254.338" x="-7.32" y="2.95" filterUnits="userSpaceOnUse">
   <feGaussianBlur xmlns="http://www.w3.org/2000/svg" in="SourceGraphic" stdDeviation="4.294"/>
   <feOffset xmlns="http://www.w3.org/2000/svg" dx="0" dy="4" result="pf_100_offsetBlur"/>
   <feFlood xmlns="http://www.w3.org/2000/svg" flood-opacity=".4"/>
   <feComposite xmlns="http://www.w3.org/2000/svg" in2="pf_100_offsetBlur" operator="in" result="pf_100_dropShadow"/>
   <feBlend xmlns="http://www.w3.org/2000/svg" in="SourceGraphic" in2="pf_100_dropShadow" mode="normal"/>
  </filter>
 </defs>
 <g filter="url(#Yi0CXdnIzujkYdPUkWS2dmYmJdOvBnmL)">
  <linearGradient id="_lgradient_163" x1=".5" x2=".5" y1=".999" y2="-.001" gradientTransform="matrix(244.648,0,0,228.338,5.676,11.947)" gradientUnits="userSpaceOnUse">
   <stop offset="1.739%" style="stop-color:rgb(173,79,141)"/>
   <stop offset="100%" style="stop-color:rgb(107,140,203)"/>
  </linearGradient>
  <path fill="url(#_lgradient_163)" d="M 165.685 11.947 C 239.74 11.947 250.324 22.504 250.324 96.491 L 250.324 155.742 C 250.324 229.728 239.74 240.285 165.685 240.285 L 90.315 240.285 C 16.26 240.285 5.676 229.728 5.676 155.742 L 5.676 96.491 C 5.676 22.504 16.26 11.947 90.315 11.947 L 165.685 11.947 Z"/>
 </g>
 <g opacity=".4">
  <linearGradient id="_lgradient_164" x1=".517" x2=".517" y1="0" y2="1">
   <stop offset="0%" style="stop-color:rgb(255,255,255)"/>
   <stop offset="12.5%" stop-opacity=".098" style="stop-color:rgb(255,255,255)"/>
   <stop offset="92.5%" stop-opacity=".098" style="stop-color:rgb(0,0,0)"/>
   <stop offset="100%" stop-opacity=".498" style="stop-color:rgb(0,0,0)"/>
  </linearGradient>
  <path fill="none" stroke="url(#_lgradient_164)" stroke-linecap="round" stroke-linejoin="round" stroke-width="4.077" d="M 165.685 11.947 C 239.74 11.947 250.324 22.504 250.324 96.491 L 250.324 155.742 C 250.324 229.728 239.74 240.285 165.685 240.285 L 90.315 240.285 C 16.26 240.285 5.676 229.728 5.676 155.742 L 5.676 96.491 C 5.676 22.504 16.26 11.947 90.315 11.947 L 165.685 11.947 Z" vector-effect="non-scaling-stroke"/>
 </g>
 <g filter="url(#v4y3DTtvs7mK5xx5yqHoAI4N78tpp3Hy)">
  <path fill="#FEFEFE" d="M 143.03 127.72 C 144.26 128.33 145.44 129.07 146.53 129.91 C 148.01 131.05 149.38 132.32 150.65 133.69 C 152.24 135.39 153.74 137.18 155.15 139.03 C 156.97 141.42 158.73 143.85 160.43 146.33 C 161.99 148.6 163.58 150.84 165.21 153.05 C 166.53 154.86 167.91 156.62 169.33 158.35 C 170.47 159.74 171.68 161.07 172.96 162.34 C 173.98 163.37 175.08 164.32 176.24 165.19 C 177.22 165.92 178.27 166.55 179.37 167.08 C 180.41 167.58 181.5 167.98 182.62 168.26 C 183.83 168.57 185.07 168.78 186.32 168.9 C 187.79 169.03 189.27 169.1 190.74 169.09 C 192.14 169.08 193.54 169.13 194.94 169.23 C 196.03 169.31 197.13 169.45 198.2 169.68 C 198.66 169.77 199.1 169.89 199.54 170.04 C 199.96 170.19 200.37 170.37 200.75 170.6 C 201.21 170.86 201.61 171.22 201.94 171.64 C 202.38 172.22 202.61 172.94 202.6 173.67 C 202.57 174.5 202.25 175.3 201.7 175.93 C 201.29 176.41 200.81 176.83 200.28 177.17 C 199.84 177.44 199.36 177.65 198.85 177.76 C 198.41 177.87 197.96 177.96 197.5 178.01 C 196.42 178.13 195.33 178.18 194.24 178.17 C 192.74 178.16 191.25 178.1 189.75 177.99 C 188.15 177.87 186.56 177.71 184.97 177.49 C 183.48 177.3 182 177.04 180.53 176.73 C 179.29 176.48 178.07 176.13 176.9 175.66 C 175.15 174.92 173.49 173.96 171.96 172.83 C 170.19 171.53 168.54 170.09 167.01 168.52 C 165.19 166.66 163.47 164.71 161.86 162.66 C 159.93 160.23 158.1 157.73 156.36 155.16 C 154.89 153.01 153.38 150.87 151.84 148.77 C 150.56 147.02 149.24 145.31 147.86 143.64 C 146.73 142.26 145.55 140.94 144.3 139.67 C 143.28 138.63 142.2 137.66 141.05 136.76 C 140.09 136 139.07 135.33 138 134.75 C 137.03 134.23 136.01 133.81 134.96 133.48 C 133.89 133.15 132.79 132.91 131.68 132.77 C 130.44 132.62 129.19 132.55 127.94 132.55 C 126.69 132.55 125.44 132.62 124.19 132.77 C 123.08 132.91 121.99 133.15 120.92 133.48 C 119.87 133.81 118.85 134.23 117.88 134.75 C 116.81 135.33 115.78 136 114.82 136.76 C 113.68 137.66 112.59 138.63 111.58 139.67 C 110.33 140.94 109.14 142.26 108.02 143.64 C 106.64 145.31 105.31 147.02 104.04 148.77 C 102.5 150.87 100.99 153 99.52 155.16 C 97.77 157.75 95.92 160.27 93.99 162.73 C 92.4 164.75 90.69 166.68 88.88 168.51 C 87.35 170.06 85.69 171.48 83.92 172.74 C 82.34 173.87 80.64 174.82 78.86 175.57 C 77.61 176.07 76.33 176.46 75.01 176.74 C 73.49 177.08 71.96 177.37 70.42 177.58 C 68.8 177.82 67.18 178 65.55 178.13 C 64.06 178.25 62.56 178.32 61.06 178.32 C 59.88 178.34 58.7 178.27 57.54 178.11 C 57.04 178.04 56.56 177.92 56.09 177.76 C 55.36 177.52 54.73 177.06 54.29 176.43 C 54.04 176.05 53.83 175.64 53.67 175.22 C 53.49 174.75 53.4 174.24 53.4 173.73 C 53.42 172.54 54 171.43 54.96 170.73 C 55.35 170.45 55.77 170.22 56.21 170.05 C 56.65 169.88 57.1 169.74 57.56 169.64 C 58.63 169.41 59.72 169.27 60.81 169.21 C 62.25 169.12 63.7 169.08 65.14 169.09 C 66.6 169.1 68.06 169.03 69.52 168.9 C 70.76 168.78 71.99 168.56 73.2 168.25 C 74.32 167.96 75.41 167.56 76.45 167.05 C 77.56 166.51 78.62 165.86 79.61 165.12 C 80.78 164.23 81.9 163.26 82.94 162.21 C 84.24 160.91 85.47 159.55 86.64 158.13 C 88.1 156.37 89.5 154.57 90.86 152.73 C 92.53 150.47 94.17 148.19 95.77 145.88 C 97.41 143.51 99.14 141.21 100.94 138.97 C 102.51 137.01 104.17 135.12 105.91 133.31 C 107.37 131.78 108.94 130.35 110.6 129.03 C 111.13 128.6 111.68 128.2 112.25 127.82 C 111.67 127.43 111.12 127.02 110.58 126.59 C 108.91 125.26 107.34 123.82 105.87 122.27 C 104.12 120.45 102.45 118.54 100.86 116.56 C 99.04 114.28 97.29 111.94 95.63 109.54 C 94.03 107.24 92.4 104.95 90.75 102.68 C 89.43 100.87 88.07 99.1 86.67 97.36 C 85.57 96 84.4 94.68 83.18 93.42 C 82.22 92.43 81.18 91.51 80.08 90.68 C 79.15 89.98 78.16 89.37 77.12 88.86 C 76.1 88.37 75.03 87.98 73.94 87.69 C 72.69 87.37 71.42 87.12 70.14 86.97 C 68.57 86.77 67 86.63 65.43 86.55 C 63.88 86.46 62.34 86.35 60.8 86.2 C 59.74 86.1 58.68 85.94 57.64 85.71 C 57.21 85.62 56.8 85.49 56.39 85.34 C 55.97 85.18 55.57 84.96 55.21 84.69 C 54.32 84.04 53.79 83.02 53.76 81.92 C 53.74 80.93 54.12 79.98 54.83 79.29 C 55.46 78.73 56.24 78.35 57.07 78.19 C 57.84 78.03 58.63 77.93 59.42 77.89 C 60.53 77.84 61.65 77.81 62.76 77.82 C 63.52 77.82 64.28 77.82 65.04 77.84 C 66.81 77.85 68.56 77.94 70.32 78.1 C 71.91 78.25 73.49 78.5 75.05 78.86 C 76.54 79.2 77.99 79.67 79.39 80.27 C 80.81 80.88 82.16 81.61 83.44 82.47 C 84.8 83.38 86.08 84.4 87.28 85.52 C 88.63 86.76 89.91 88.09 91.11 89.47 C 92.51 91.09 93.85 92.75 95.13 94.45 C 96.66 96.46 98.14 98.51 99.59 100.58 C 101.11 102.76 102.67 104.92 104.26 107.06 C 105.56 108.82 106.91 110.54 108.3 112.22 C 109.43 113.59 110.62 114.91 111.86 116.18 C 112.85 117.2 113.92 118.16 115.04 119.05 C 115.97 119.78 116.96 120.43 117.99 121 C 118.92 121.5 119.9 121.9 120.91 122.22 C 121.93 122.53 122.99 122.75 124.05 122.89 C 125.26 123.03 126.48 123.11 127.7 123.1 C 127.7 123.1 127.7 123.1 127.71 123.1 L 127.89 123.1 C 127.89 123.1 127.89 123.1 127.89 123.1 C 129.11 123.11 130.32 123.04 131.53 122.9 C 132.6 122.78 133.66 122.57 134.69 122.28 C 136.74 121.68 138.67 120.72 140.39 119.45 C 141.42 118.69 142.39 117.87 143.3 116.98 C 144.39 115.92 145.42 114.81 146.4 113.65 C 147.57 112.25 148.7 110.81 149.78 109.34 C 151.07 107.58 152.33 105.8 153.54 103.99 C 155.61 100.9 157.79 97.89 160.07 94.95 C 161.95 92.52 163.95 90.19 166.08 87.97 C 167.81 86.15 169.69 84.48 171.7 82.97 C 173.37 81.7 175.2 80.67 177.15 79.89 C 178.26 79.48 179.39 79.15 180.54 78.89 C 181.79 78.61 183.05 78.39 184.32 78.22 C 186.92 77.86 189.54 77.68 192.16 77.68 C 193.19 77.67 194.23 77.71 195.26 77.79 C 196.15 77.85 197.03 77.96 197.9 78.13 C 198.7 78.27 199.47 78.53 200.19 78.89 C 200.64 79.13 201.05 79.46 201.38 79.85 C 201.85 80.41 202.12 81.13 202.12 81.86 C 202.11 83.01 201.54 84.08 200.6 84.74 C 200.22 85 199.82 85.21 199.39 85.36 C 198.97 85.51 198.53 85.63 198.1 85.72 C 196.99 85.95 195.88 86.11 194.75 86.2 C 193.1 86.35 191.44 86.46 189.79 86.55 C 188.03 86.63 186.27 86.76 184.51 86.94 C 183.41 87.04 182.31 87.22 181.23 87.48 C 180.46 87.68 179.71 87.96 179 88.32 C 178.15 88.77 177.33 89.28 176.55 89.84 C 175.85 90.34 175.19 90.9 174.57 91.5 C 173.65 92.37 172.77 93.26 171.92 94.19 C 170 96.27 168.2 98.46 166.54 100.75 C 162.92 105.78 159.29 110.8 155.65 115.81 C 154.09 117.93 152.37 119.92 150.5 121.78 C 149.62 122.66 148.71 123.52 147.76 124.33 C 146.95 125.04 146.09 125.7 145.19 126.29 C 144.45 126.74 143.73 127.22 143.03 127.72 Z"/>
  <path fill="#FEFEFE" d="M 123.37 127.84 C 122.04 128.02 120.73 128.31 119.44 128.7 C 119.4 128.71 119.37 128.73 119.33 128.74 C 119.44 128.44 119.49 128.13 119.5 127.82 C 119.49 127.53 119.44 127.24 119.35 126.97 C 119.38 126.98 119.41 126.99 119.44 127 C 120.72 127.39 122.04 127.67 123.37 127.84 Z"/>
  <path fill="#FEFEFE" d="M 136.42 127.84 L 136.42 127.85 C 136.42 127.99 136.43 128.13 136.45 128.28 C 136.47 128.43 136.5 128.59 136.55 128.74 C 136.51 128.73 136.47 128.71 136.43 128.7 C 135.13 128.3 133.79 128.01 132.44 127.83 C 133.67 127.67 134.88 127.42 136.07 127.08 C 136.26 127.03 136.44 126.98 136.62 126.92 C 136.56 127.08 136.51 127.25 136.47 127.42 C 136.44 127.56 136.43 127.7 136.42 127.84 Z"/>
 </g>
 <defs>
  <filter id="v4y3DTtvs7mK5xx5yqHoAI4N78tpp3Hy" width="209.2" height="160.645" x="23.4" y="51.68" filterUnits="userSpaceOnUse">
   <feGaussianBlur xmlns="http://www.w3.org/2000/svg" in="SourceGraphic" stdDeviation="4.294"/>
   <feOffset xmlns="http://www.w3.org/2000/svg" dx="0" dy="4" result="pf_100_offsetBlur"/>
   <feFlood xmlns="http://www.w3.org/2000/svg" flood-opacity=".4"/>
   <feComposite xmlns="http://www.w3.org/2000/svg" in2="pf_100_offsetBlur" operator="in" result="pf_100_dropShadow"/>
   <feBlend xmlns="http://www.w3.org/2000/svg" in="SourceGraphic" in2="pf_100_dropShadow" mode="normal"/>
  </filter>
 </defs>
</svg>
